;FLAVOR:Marlin
;TIME:4818
;Filament used: 3.80868m
;Layer height: 0.15
;MINX:102.2
;MINY:102.2
;MINZ:0.15
;MAXX:147.8
;MAXY:147.8
;MAXZ:30
;Generated with Cura_SteamEngine 4.12.1
M104 S220
M105
M109 S220
M82 ;absolute extrusion mode
G28 
G1 Z15 F300
M107
G90
M82
M104 S215
M140 S55
G92 E0
M109 S215
M107
G0 X10 Y20 F6000
G1 Z0.8
G1 F300 X200 E40
G1 F1200 Z2
G92 E0
G28
G92 E0
G92 E0
G1 F2100 E-0.8
;LAYER_COUNT:200
;LAYER:0
M107
G0 F3600 X104.623 Y104.349 Z0.15
;TYPE:SKIRT
G1 F2100 E0
G1 F1200 X105.222 Y103.834 E0.01971
G1 X105.87 Y103.383 E0.0394
G1 X106.561 Y102.999 E0.05912
G1 X107.286 Y102.687 E0.07881
G1 X108.039 Y102.45 E0.0985
G1 X108.813 Y102.291 E0.11821
G1 X109.598 Y102.21 E0.1379
G1 X110 Y102.2 E0.14793
G1 X140 Y102.2 E0.89628
G1 X140.789 Y102.24 E0.91599
G1 X141.569 Y102.359 E0.93567
G1 X142.334 Y102.557 E0.95538
G1 X143.074 Y102.831 E0.97507
G1 X143.783 Y103.179 E0.99477
G1 X144.454 Y103.597 E1.01449
G1 X145.078 Y104.08 E1.03417
G1 X145.651 Y104.623 E1.05386
G1 X146.166 Y105.222 E1.07357
G1 X146.617 Y105.87 E1.09326
G1 X147.001 Y106.561 E1.11298
G1 X147.313 Y107.286 E1.13267
G1 X147.55 Y108.039 E1.15236
G1 X147.709 Y108.813 E1.17207
G1 X147.79 Y109.598 E1.19176
G1 X147.8 Y110 E1.20179
G1 X147.8 Y140 E1.95014
G1 X147.76 Y140.789 E1.96985
G1 X147.641 Y141.569 E1.98953
G1 X147.443 Y142.334 E2.00925
G1 X147.169 Y143.074 E2.02893
G1 X146.821 Y143.783 E2.04863
G1 X146.403 Y144.454 E2.06835
G1 X145.92 Y145.078 E2.08804
G1 X145.377 Y145.651 E2.10773
G1 X144.778 Y146.166 E2.12743
G1 X144.13 Y146.617 E2.14713
G1 X143.439 Y147.001 E2.16685
G1 X142.714 Y147.313 E2.18654
G1 X141.961 Y147.55 E2.20623
G1 X141.187 Y147.709 E2.22594
G1 X140.402 Y147.79 E2.24562
G1 X140 Y147.8 E2.25566
G1 X110 Y147.8 E3.00401
G1 X109.211 Y147.76 E3.02372
G1 X108.431 Y147.641 E3.0434
G1 X107.666 Y147.443 E3.06311
G1 X106.926 Y147.169 E3.08279
G1 X106.217 Y146.821 E3.1025
G1 X105.546 Y146.403 E3.12222
G1 X104.922 Y145.92 E3.1419
G1 X104.349 Y145.377 E3.16159
G1 X103.834 Y144.778 E3.1813
G1 X103.383 Y144.13 E3.20099
G1 X102.999 Y143.439 E3.22071
G1 X102.687 Y142.714 E3.2404
G1 X102.45 Y141.961 E3.26009
G1 X102.291 Y141.187 E3.2798
G1 X102.21 Y140.402 E3.29949
G1 X102.2 Y140 E3.30952
G1 X102.2 Y110 E4.05787
G1 X102.24 Y109.211 E4.07758
G1 X102.359 Y108.431 E4.09726
G1 X102.557 Y107.666 E4.11697
G1 X102.831 Y106.926 E4.13666
G1 X103.179 Y106.217 E4.15636
G1 X103.597 Y105.546 E4.17608
G1 X104.08 Y104.922 E4.19576
G1 X104.623 Y104.349 E4.21546
G0 F3600 X105.016 Y104.53
G1 F1200 X105.611 Y104.042 E4.23465
G1 X106.253 Y103.619 E4.25383
G1 X106.936 Y103.264 E4.27303
G1 X107.651 Y102.983 E4.2922
G1 X108.393 Y102.777 E4.31141
G1 X109.151 Y102.649 E4.33058
G1 X110 Y102.6 E4.35179
G1 X140 Y102.6 E5.10015
G1 X140.768 Y102.64 E5.11933
G1 X141.528 Y102.759 E5.13852
G1 X142.271 Y102.957 E5.1577
G1 X142.99 Y103.231 E5.1769
G1 X143.676 Y103.578 E5.19607
G1 X144.323 Y103.994 E5.21526
G1 X144.923 Y104.475 E5.23444
G1 X145.47 Y105.016 E5.25363
G1 X145.958 Y105.611 E5.27283
G1 X146.381 Y106.253 E5.29201
G1 X146.736 Y106.936 E5.31121
G1 X147.017 Y107.651 E5.33037
G1 X147.223 Y108.393 E5.34958
G1 X147.351 Y109.151 E5.36876
G1 X147.4 Y110 E5.38997
G1 X147.4 Y140 E6.13833
G1 X147.36 Y140.768 E6.15751
G1 X147.241 Y141.528 E6.1767
G1 X147.043 Y142.271 E6.19588
G1 X146.769 Y142.99 E6.21507
G1 X146.422 Y143.676 E6.23425
G1 X146.006 Y144.323 E6.25344
G1 X145.525 Y144.923 E6.27262
G1 X144.984 Y145.47 E6.29181
G1 X144.389 Y145.958 E6.31101
G1 X143.747 Y146.381 E6.33019
G1 X143.064 Y146.736 E6.34939
G1 X142.349 Y147.017 E6.36855
G1 X141.607 Y147.223 E6.38776
G1 X140.849 Y147.351 E6.40694
G1 X140 Y147.4 E6.42815
G1 X110 Y147.4 E7.1765
G1 X109.232 Y147.36 E7.19569
G1 X108.472 Y147.241 E7.21488
G1 X107.729 Y147.043 E7.23406
G1 X107.01 Y146.769 E7.25325
G1 X106.324 Y146.422 E7.27243
G1 X105.677 Y146.006 E7.29162
G1 X105.077 Y145.525 E7.3108
G1 X104.53 Y144.984 E7.32999
G1 X104.042 Y144.389 E7.34919
G1 X103.619 Y143.747 E7.36837
G1 X103.264 Y143.064 E7.38757
G1 X102.983 Y142.349 E7.40673
G1 X102.777 Y141.607 E7.42594
G1 X102.649 Y140.849 E7.44512
G1 X102.6 Y140 E7.46633
G1 X102.6 Y110 E8.21468
G1 X102.64 Y109.232 E8.23387
G1 X102.759 Y108.472 E8.25306
G1 X102.957 Y107.729 E8.27224
G1 X103.231 Y107.01 E8.29143
G1 X103.578 Y106.324 E8.31061
G1 X103.994 Y105.677 E8.3298
G1 X104.475 Y105.077 E8.34898
G1 X105.016 Y104.53 E8.36817
G0 F3600 X105.408 Y104.716
G1 F1200 X105.998 Y104.257 E8.38682
G1 X106.634 Y103.862 E8.40549
G1 X107.308 Y103.538 E8.42415
G1 X108.013 Y103.288 E8.44281
G1 X108.741 Y103.114 E8.46148
G1 X109.483 Y103.019 E8.48014
G1 X110 Y103 E8.49304
G1 X140 Y103 E9.2414
G1 X140.747 Y103.04 E9.26006
G1 X141.485 Y103.159 E9.2787
G1 X142.207 Y103.357 E9.29738
G1 X142.903 Y103.63 E9.31603
G1 X143.566 Y103.977 E9.3347
G1 X144.189 Y104.392 E9.35337
G1 X144.763 Y104.871 E9.37202
G1 X145.284 Y105.408 E9.39068
G1 X145.743 Y105.998 E9.40933
G1 X146.138 Y106.634 E9.42801
G1 X146.462 Y107.308 E9.44666
G1 X146.712 Y108.013 E9.46532
G1 X146.886 Y108.741 E9.48399
G1 X146.981 Y109.483 E9.50265
G1 X147 Y110 E9.51556
G1 X147 Y140 E10.26391
G1 X146.96 Y140.747 E10.28257
G1 X146.841 Y141.485 E10.30122
G1 X146.643 Y142.207 E10.31989
G1 X146.37 Y142.903 E10.33854
G1 X146.023 Y143.566 E10.35721
G1 X145.608 Y144.189 E10.37588
G1 X145.129 Y144.763 E10.39453
G1 X144.592 Y145.284 E10.4132
G1 X144.002 Y145.743 E10.43184
G1 X143.366 Y146.138 E10.45052
G1 X142.692 Y146.462 E10.46917
G1 X141.987 Y146.712 E10.48783
G1 X141.259 Y146.886 E10.5065
G1 X140.517 Y146.981 E10.52516
G1 X140 Y147 E10.53807
G1 X110 Y147 E11.28642
G1 X109.253 Y146.96 E11.30508
G1 X108.515 Y146.841 E11.32373
G1 X107.793 Y146.643 E11.34241
G1 X107.097 Y146.37 E11.36106
G1 X106.434 Y146.023 E11.37972
G1 X105.811 Y145.608 E11.3984
G1 X105.237 Y145.129 E11.41704
G1 X104.716 Y144.592 E11.43571
G1 X104.257 Y144.002 E11.45436
G1 X103.862 Y143.366 E11.47303
G1 X103.538 Y142.692 E11.49169
G1 X103.288 Y141.987 E11.51035
G1 X103.114 Y141.259 E11.52902
G1 X103.019 Y140.517 E11.54768
G1 X103 Y140 E11.56058
G1 X103 Y110 E12.30894
G1 X103.04 Y109.253 E12.3276
G1 X103.159 Y108.515 E12.34624
G1 X103.357 Y107.793 E12.36492
G1 X103.63 Y107.097 E12.38357
G1 X103.977 Y106.434 E12.40224
G1 X104.392 Y105.811 E12.42091
G1 X104.871 Y105.237 E12.43956
G1 X105.408 Y104.716 E12.45822
G0 F3600 X105.265 Y105.402
G1 F1200 X105.799 Y104.909 E12.47635
G1 X106.384 Y104.479 E12.49446
G1 X107.013 Y104.115 E12.51259
G1 X107.678 Y103.822 E12.53072
G1 X108.371 Y103.604 E12.54884
G1 X109.083 Y103.464 E12.56694
G1 X110 Y103.4 E12.58987
G1 X140 Y103.4 E13.33822
G1 X140.725 Y103.44 E13.35634
G1 X141.442 Y103.559 E13.37447
G1 X142.141 Y103.757 E13.39259
G1 X142.814 Y104.03 E13.41071
G1 X143.453 Y104.375 E13.42882
G1 X144.05 Y104.789 E13.44694
G1 X144.598 Y105.265 E13.46505
G1 X145.091 Y105.799 E13.48318
G1 X145.521 Y106.384 E13.50129
G1 X145.885 Y107.013 E13.51942
G1 X146.178 Y107.678 E13.53755
G1 X146.396 Y108.371 E13.55567
G1 X146.536 Y109.083 E13.57377
G1 X146.6 Y110 E13.5967
G1 X146.6 Y140 E14.34505
G1 X146.56 Y140.725 E14.36317
G1 X146.441 Y141.442 E14.3813
G1 X146.243 Y142.141 E14.39942
G1 X145.97 Y142.814 E14.41754
G1 X145.625 Y143.453 E14.43565
G1 X145.211 Y144.05 E14.45377
G1 X144.735 Y144.598 E14.47188
G1 X144.201 Y145.091 E14.49001
G1 X143.616 Y145.521 E14.50812
G1 X142.987 Y145.885 E14.52625
G1 X142.322 Y146.178 E14.54438
G1 X141.629 Y146.396 E14.5625
G1 X140.917 Y146.536 E14.5806
G1 X140 Y146.6 E14.60353
G1 X110 Y146.6 E15.35188
G1 X109.275 Y146.56 E15.37
G1 X108.558 Y146.441 E15.38813
G1 X107.859 Y146.243 E15.40625
G1 X107.186 Y145.97 E15.42437
G1 X106.547 Y145.625 E15.44248
G1 X105.95 Y145.211 E15.4606
G1 X105.402 Y144.735 E15.47871
G1 X104.909 Y144.201 E15.49684
G1 X104.479 Y143.616 E15.51495
G1 X104.115 Y142.987 E15.53308
G1 X103.822 Y142.322 E15.55121
G1 X103.604 Y141.629 E15.56933
G1 X103.464 Y140.917 E15.58743
G1 X103.4 Y140 E15.61036
G1 X103.4 Y110 E16.35871
G1 X103.44 Y109.275 E16.37682
G1 X103.559 Y108.558 E16.39496
G1 X103.757 Y107.859 E16.41308
G1 X104.03 Y107.186 E16.43119
G1 X104.375 Y106.547 E16.44931
G1 X104.789 Y105.95 E16.46743
G1 X105.265 Y105.402 E16.48554
G0 F3600 X105.659 Y105.573
G1 F1200 X106.189 Y105.109 E16.50311
G1 X106.768 Y104.709 E16.52066
G1 X107.389 Y104.377 E16.53823
G1 X108.043 Y104.117 E16.55579
G1 X108.723 Y103.933 E16.57336
G1 X109.419 Y103.827 E16.59092
G1 X110 Y103.8 E16.60543
G1 X140 Y103.8 E17.35378
G1 X140.703 Y103.84 E17.37135
G1 X141.397 Y103.959 E17.38891
G1 X142.072 Y104.157 E17.40646
G1 X142.721 Y104.429 E17.42401
G1 X143.335 Y104.774 E17.44158
G1 X143.906 Y105.185 E17.45913
G1 X144.427 Y105.659 E17.4767
G1 X144.891 Y106.189 E17.49427
G1 X145.291 Y106.768 E17.51183
G1 X145.623 Y107.389 E17.52939
G1 X145.883 Y108.043 E17.54695
G1 X146.067 Y108.723 E17.56452
G1 X146.173 Y109.419 E17.58208
G1 X146.2 Y110 E17.59659
G1 X146.2 Y140 E18.34495
G1 X146.16 Y140.703 E18.36251
G1 X146.041 Y141.397 E18.38008
G1 X145.843 Y142.072 E18.39762
G1 X145.571 Y142.721 E18.41518
G1 X145.226 Y143.335 E18.43275
G1 X144.815 Y143.906 E18.4503
G1 X144.341 Y144.427 E18.46787
G1 X143.811 Y144.891 E18.48544
G1 X143.232 Y145.291 E18.50299
G1 X142.611 Y145.623 E18.52056
G1 X141.957 Y145.883 E18.53811
G1 X141.277 Y146.067 E18.55569
G1 X140.581 Y146.173 E18.57325
G1 X140 Y146.2 E18.58776
G1 X110 Y146.2 E19.33611
G1 X109.297 Y146.16 E19.35368
G1 X108.603 Y146.041 E19.37124
G1 X107.928 Y145.843 E19.38879
G1 X107.279 Y145.571 E19.40634
G1 X106.665 Y145.226 E19.42391
G1 X106.094 Y144.815 E19.44146
G1 X105.573 Y144.341 E19.45903
G1 X105.109 Y143.811 E19.4766
G1 X104.709 Y143.232 E19.49416
G1 X104.377 Y142.611 E19.51172
G1 X104.117 Y141.957 E19.52928
G1 X103.933 Y141.277 E19.54685
G1 X103.827 Y140.581 E19.56441
G1 X103.8 Y140 E19.57892
G1 X103.8 Y110 E20.32727
G1 X103.84 Y109.297 E20.34484
G1 X103.959 Y108.603 E20.3624
G1 X104.157 Y107.928 E20.37995
G1 X104.429 Y107.279 E20.3975
G1 X104.774 Y106.665 E20.41507
G1 X105.185 Y106.094 E20.43262
G1 X105.659 Y105.573 E20.45019
G0 F3600 X106.053 Y105.751
G1 F1200 X106.578 Y105.317 E20.46718
G1 X107.15 Y104.948 E20.48416
G1 X107.762 Y104.649 E20.50116
G1 X108.404 Y104.424 E20.51813
G1 X109.069 Y104.275 E20.53512
G1 X110 Y104.2 E20.55842
G1 X140 Y104.2 E21.30678
G1 X140.68 Y104.24 E21.32377
G1 X141.35 Y104.359 E21.34074
G1 X142.002 Y104.556 E21.35773
G1 X142.626 Y104.828 E21.37471
G1 X143.214 Y105.172 E21.39171
G1 X143.758 Y105.582 E21.4087
G1 X144.249 Y106.053 E21.42567
G1 X144.683 Y106.578 E21.44266
G1 X145.052 Y107.15 E21.45964
G1 X145.351 Y107.762 E21.47664
G1 X145.576 Y108.404 E21.49361
G1 X145.725 Y109.069 E21.51061
G1 X145.8 Y110 E21.5339
G1 X145.8 Y140 E22.28226
G1 X145.76 Y140.68 E22.29925
G1 X145.641 Y141.35 E22.31622
G1 X145.444 Y142.002 E22.33321
G1 X145.172 Y142.626 E22.35019
G1 X144.828 Y143.214 E22.36719
G1 X144.418 Y143.758 E22.38418
G1 X143.947 Y144.249 E22.40115
G1 X143.422 Y144.683 E22.41814
G1 X142.85 Y145.052 E22.43512
G1 X142.238 Y145.351 E22.45212
G1 X141.596 Y145.576 E22.46909
G1 X140.931 Y145.725 E22.48609
G1 X140 Y145.8 E22.50938
G1 X110 Y145.8 E23.25774
G1 X109.32 Y145.76 E23.27473
G1 X108.65 Y145.641 E23.2917
G1 X107.998 Y145.444 E23.30869
G1 X107.374 Y145.172 E23.32567
G1 X106.786 Y144.828 E23.34267
G1 X106.242 Y144.418 E23.35966
G1 X105.751 Y143.947 E23.37663
G1 X105.317 Y143.422 E23.39362
G1 X104.948 Y142.85 E23.4106
G1 X104.649 Y142.238 E23.4276
G1 X104.424 Y141.596 E23.44457
G1 X104.275 Y140.931 E23.46157
G1 X104.2 Y140 E23.48486
G1 X104.2 Y110 E24.23322
G1 X104.24 Y109.32 E24.25021
G1 X104.359 Y108.65 E24.26718
G1 X104.556 Y107.998 E24.28417
G1 X104.828 Y107.374 E24.30116
G1 X105.172 Y106.786 E24.31815
G1 X105.582 Y106.242 E24.33514
G1 X106.053 Y105.751 E24.35211
G0 F3600 X106.445 Y105.935
G1 F1200 X106.965 Y105.534 E24.36849
G1 X107.529 Y105.198 E24.38487
G1 X108.131 Y104.934 E24.40127
G1 X108.76 Y104.744 E24.41766
G1 X109.407 Y104.633 E24.43403
G1 X110 Y104.6 E24.44885
G1 X140 Y104.6 E25.1972
G1 X140.656 Y104.64 E25.2136
G1 X141.302 Y104.759 E25.22998
G1 X141.929 Y104.956 E25.24638
G1 X142.527 Y105.228 E25.26276
G1 X143.088 Y105.57 E25.27915
G1 X143.603 Y105.978 E25.29554
G1 X144.065 Y106.445 E25.31193
G1 X144.466 Y106.965 E25.32831
G1 X144.802 Y107.529 E25.34469
G1 X145.066 Y108.131 E25.36108
G1 X145.256 Y108.76 E25.37748
G1 X145.367 Y109.407 E25.39385
G1 X145.4 Y110 E25.40867
G1 X145.4 Y140 E26.15702
G1 X145.36 Y140.656 E26.17341
G1 X145.241 Y141.302 E26.1898
G1 X145.044 Y141.929 E26.20619
G1 X144.772 Y142.527 E26.22258
G1 X144.43 Y143.088 E26.23897
G1 X144.022 Y143.603 E26.25536
G1 X143.555 Y144.065 E26.27175
G1 X143.035 Y144.466 E26.28813
G1 X142.471 Y144.802 E26.3045
G1 X141.869 Y145.066 E26.3209
G1 X141.24 Y145.256 E26.33729
G1 X140.593 Y145.367 E26.35367
G1 X140 Y145.4 E26.36848
G1 X110 Y145.4 E27.11684
G1 X109.344 Y145.36 E27.13323
G1 X108.698 Y145.241 E27.14962
G1 X108.071 Y145.044 E27.16601
G1 X107.473 Y144.772 E27.1824
G1 X106.912 Y144.43 E27.19879
G1 X106.397 Y144.022 E27.21518
G1 X105.935 Y143.555 E27.23156
G1 X105.534 Y143.035 E27.24794
G1 X105.198 Y142.471 E27.26432
G1 X104.934 Y141.869 E27.28072
G1 X104.744 Y141.24 E27.29711
G1 X104.633 Y140.593 E27.31348
G1 X104.6 Y140 E27.3283
G1 X104.6 Y110 E28.07665
G1 X104.64 Y109.344 E28.09305
G1 X104.759 Y108.698 E28.10943
G1 X104.956 Y108.071 E28.12583
G1 X105.228 Y107.473 E28.14222
G1 X105.57 Y106.912 E28.1586
G1 X105.978 Y106.397 E28.17499
G1 X106.445 Y105.935 E28.19138
G0 F3600 X106.373 Y106.559
G1 F1200 X106.836 Y106.129 E28.20714
G1 X107.35 Y105.76 E28.22293
G1 X107.906 Y105.46 E28.23869
G1 X108.495 Y105.232 E28.25444
G1 X109.109 Y105.08 E28.27022
G1 X110 Y105 E28.29254
G1 X140 Y105 E29.04089
G1 X140.631 Y105.04 E29.05666
G1 X141.252 Y105.159 E29.07243
G1 X141.852 Y105.356 E29.08819
G1 X142.424 Y105.627 E29.10398
G1 X142.956 Y105.967 E29.11973
G1 X143.441 Y106.373 E29.1355
G1 X143.871 Y106.836 E29.15127
G1 X144.24 Y107.35 E29.16705
G1 X144.54 Y107.906 E29.18281
G1 X144.768 Y108.495 E29.19856
G1 X144.92 Y109.109 E29.21434
G1 X145 Y110 E29.23666
G1 X145 Y140 E29.98501
G1 X144.96 Y140.631 E30.00078
G1 X144.841 Y141.252 E30.01656
G1 X144.644 Y141.852 E30.03231
G1 X144.373 Y142.424 E30.0481
G1 X144.033 Y142.956 E30.06385
G1 X143.627 Y143.441 E30.07963
G1 X143.164 Y143.871 E30.09539
G1 X142.65 Y144.24 E30.11117
G1 X142.094 Y144.54 E30.12693
G1 X141.505 Y144.768 E30.14269
G1 X140.891 Y144.92 E30.15846
G1 X140 Y145 E30.18078
G1 X110 Y145 E30.92913
G1 X109.369 Y144.96 E30.94491
G1 X108.748 Y144.841 E30.96068
G1 X108.148 Y144.644 E30.97643
G1 X107.576 Y144.373 E30.99222
G1 X107.044 Y144.033 E31.00797
G1 X106.559 Y143.627 E31.02375
G1 X106.129 Y143.164 E31.03951
G1 X105.76 Y142.65 E31.05529
G1 X105.46 Y142.094 E31.07105
G1 X105.232 Y141.505 E31.08681
G1 X105.08 Y140.891 E31.10259
G1 X105 Y140 E31.1249
G1 X105 Y110 E31.87326
G1 X105.04 Y109.369 E31.88903
G1 X105.159 Y108.748 E31.9048
G1 X105.356 Y108.148 E31.92055
G1 X105.627 Y107.576 E31.93634
G1 X105.967 Y107.044 E31.95209
G1 X106.373 Y106.559 E31.96787
G0 F3600 X106.767 Y106.728
G1 F1200 X107.225 Y106.331 E31.98299
G1 X107.732 Y105.998 E31.99812
G1 X108.278 Y105.734 E32.01325
G1 X108.854 Y105.545 E32.02837
G1 X109.45 Y105.433 E32.0435
G1 X110 Y105.4 E32.05724
G1 X140 Y105.4 E32.8056
G1 X140.605 Y105.44 E32.82072
G1 X141.199 Y105.559 E32.83583
G1 X141.773 Y105.755 E32.85096
G1 X142.316 Y106.026 E32.8661
G1 X142.819 Y106.365 E32.88123
G1 X143.272 Y106.767 E32.89634
G1 X143.669 Y107.225 E32.91146
G1 X144.002 Y107.732 E32.92659
G1 X144.266 Y108.278 E32.94172
G1 X144.455 Y108.854 E32.95684
G1 X144.567 Y109.45 E32.97197
